!!!COM: Hugo Wolf
!!!CNT: Deutscher
!!!TXO: Deutsche 
!!!OTL: Elfenlied
!!!ONM: No. 16
!!!ODT: 1888/
!!!LYR: Moericke
!!!ENC: Brian Bice
!!!YOR: 65 Songs for voice and piano, International Music Company, 1960
!!NB: Vocal melody and text only encoded.
**kern	**silbe
*clefG2	*
*k[b-e-a-d-]	*
*M2/4	*
=0	=0
4.r	.
{8f	{Bei
=1	=1
8g-	Nacht
8a-	im
8b-	Dorf
8cc-	der
=2	=2
8dd-	Wa2ch-
8ee-	-ter
4ff	rief:
=3	=3
2gg-;	"El-
=4	=4
4g-;}	-fe!"}
8r;	.
{8a-	{Ein
=5	=5
8b-	ganz
16a-	klei-
16a-	-nes
8b-	Elf-
16cc	-chen
16cc	im
=6	=6
8dd-	Wal-
8ee-	-de
8ff	schlief
8r	.
=7	=7
8r	.
8ee-	wohl
8ff	um
8ggn	die
=8	=8
2aa	El-
=9	=9
2a}	-fe!}
=14	=14
8r	.
{8ddn	{Und
8ddn	meint,
8ddn	es
=15	=15
8ee-	rief
8ddn	ihm
8ee-	aus
8gg-	dem
=16	=16
8b--	Tal
8ccn	bei
8ccn	sei-
8ccn	-nem
=17	=17
8dd-	Na-
16dd-	-men
16dd-	die
8ee-	Nach-
8ff	-ti-
=18	=18
4a-}	-gall,}
{8g	{o-
8a-	-der
=19	=19
12ff-	Sil-
12ff-	-pe-
12ff-	-lit
12ff-	ha2tt
12ee-	ihm
12dd-	ge-
=20	=20
8cc	-ru-
8ee-}	-fen.}
4r	.
=22	=22
8r	.
{8bn	{Reibt
8bn	sich
8bn	der
=23	=23
8cc	Elf
8ee-	die
8ff	Au-
8gg-	-gen
=24	=24
8b--	aus,
8ccn	be-
8ccn	-gibt
8ccn	sich
=25	=25
8ccn	vor
8dd-	sein
8ee-	Schneck-
8ff	-en-
=26	=26
8g}	-haus}
{8g	{und
8g	ist
8g	als
=27	=27
8ff-	wie
8ff-	ein
8ee-	trun-
8dd-	-ken
=28	=28
8cc	Mann,
8a-	sein
8a-	Schla2f-
8a-	-lein
=29	=29
8g	war
8ff-	nicht
8ee-	voll
8dd-	ge-
=30	=30
8cc}	-tan,}
{8aa-	{und
8ffn	hum-
8ee-	-pelt
=31	=31
8ddn	al-
8ff	-so,
8ddn	tip-
8cc	-pe,
=32	=32
8bn	tapp,
8g	durchs
8a-	Ha-
8bn	-sel-
=33	=33
8g	-holz
8a-	ins
8bn	Tal
8cc	hin-
=34	=34
8a-}	-ab,}
{8bn	{schlupft
8cc	an
8ddn	der
=35	=35
8.ee-	Mau-
16ddn	-er
8ee-	hin
8ddn	so
=36	=36
8dd-	dicht,
8ddn	da
8ee-	sitzt
8een	der
=37	=37
8ff	Glu2h-
8cc	-wurm
8ff	Licht
8een	an
=38	=38
*k[b-e-]	*
[2ff	Licht.
=39	=39
8ff]}	|}
8r	.
4r	.
=41	=41
4r	.
8r	.
{8f	{"Was
=42	=42
8f	sind
8b-	das
8b-	hel-
16dd	-le
16gg	|
=43	=43
8ff	Fen-
8cc	-ster-
8dd	-lein?
8f	Da
=44	=44
8f	drin
8b-	wird
8b-	ei-
16dd	-ne
16gg	|
=45	=45
8ff	Hoch-
8cc	-zeit
8dd}	sein:}
{16b-	{die
16cc	|
=46	=46
16dd	Klei-
16ee-	|
16b-	-nen
16cc	|
16dd	si-
16ee-	|
16b-	-tzen
16cc	beim
=47	=47
4dd	Mah-
8dd	-le
16b-	und
16cc	|
=48	=48
16dd	trei-
16ee-	|
16b-	-bens
16cc	|
16dd	in
16ee-	|
16b-	dem
16cc	|
=49	=49
4dd	Saa-
4dd}	-le.}
=50	=50
16r	.
{16a	{Da
16a	guck
16cc#	ich
16d	wohl
16ffn	ein
16een	we-
16a	-nig
=51	=51
8dd}	'nein!"}
8r	.
4r	.
=52	=52
4r	.
8.r	.
{16aa-	{Pfui,
=53	=53
*k[b-e-a-d-]	*
16r	.
8ee-	sto2sst
16ddn	den
16dd-	Kopf
16cc	an
16cc-	har-
16ee-	-ten
=54	=54
8a-}	Stein!}
8r	.
{8aa-	{El-
8a-	-fe,
=55	=55
8aa-	gelt,
8r	.
16r	.
16a-	du
16a-	hast
16a-	ge-
=56	=56
4aa-}	-nug?}
8r	.
{8aa-	{Gu-
=57	=57
8ee-}	-kuk!}
8r	.
4r	.
=58	=58
{4.aa-	{El-
8a-	-fe,
=59	=59
8aa-	gelt,
8r	.
16r	.
16a-	du
16a-	hast
16a-	ge-
=60	=60
4aa-}	-nug?}
8r	.
{8aa-	{Gu-
=61	=61
8ee-}	-kuk!}
8r	.
4r	.
=62	=62
8r	.
{8aa-	{Gu-
8ee-}	-kuk!}
8r	.
=63	=63
8r	.
{8aa-	{Gu-
8ee-}	-kuk!}
8r	.
=64	=64
8r	.
{8aa-	{Gu-
8ee-}	-kuk!}
8r	.
*-	*-
